src/actions/symbolic/builder-todo-symbolic.svg

<svg width="16px" height="16px" version="1.1" viewBox="0 0 16 16" xmlns="http://www.w3.org/2000/svg">
 <path d="m3 1c-1.108 0-2 0.892-2 2v10c0 1.108 0.892 2 2 2h10c1.108 0 2-0.892 2-2v-7.584l-1 1v6.584c0 0.554-0.446 1-1 1h-10c-0.554 0-1-0.446-1-1v-10c0-0.554 0.446-1 1-1h10c0.32063 0 0.6024 0.1515 0.78516 0.38477l0.71094-0.71094c-0.36586-0.41261-0.89874-0.67383-1.4961-0.67383h-10z" fill="#363636"/>
 <path d="m3.0503 6.0503 4.9497 4.9497 8.4853-8.4853-0.70711-0.70711-7.7782 7.7782-4.2426-4.2426z" color="#000000" fill="#363636" fill-rule="evenodd" stroke-linecap="round" stroke-linejoin="round" stroke-width="2" style="-inkscape-stroke:none"/>
</svg>

<svg xmlns="http://www.w3.org/2000/svg" width="16" height="16">
    <path fill="#050505" fill-opacity=".7" d="M3 1c-1.108 0-2 .892-2 2v10c0 1.108.892 2 2 2h10c1.108 0 2-.892 2-2V5.416l-1 1V13c0 .554-.446 1-1 1H3c-.554 0-1-.446-1-1V3c0-.554.446-1 1-1h10c.32 0 .602.152.785.385l.711-.711A1.992 1.992 0 0 0 13 1H3z"/>
    <path fill="#050505" fill-opacity=".7" fill-rule="evenodd" d="M3.05 6.05 8 11l8.485-8.485-.707-.707L8 9.586 3.757 5.343z" color="#000" style="-inkscape-stroke:none"/>
</svg>
